X: 40116
T: Tide At The Taing
R: waltz
M: 3/4
K: Fdorian
B,2|"Eb" E3 E E2|E2 G2 B2|"Ab" c3 c c2|c2 B2 G2|"Cm" c3 c c2|"Ab" c2 B2 G2|"Fm7"F3 G B2|"Bb" G2 F2 B,2|
"Eb" E3 E E2|E2 G2 B2|"Ab" c3 c c2|"Cm" c2 B2 G2|"Ab" c3 d e2|"Fm7" c2 B2 G2|"Bb" F6|"Eb" E4 B2|
"Ab"c3 c c2|c2 B2 G2|"Cm" c3 c c2|c2 B2 G2|"Eb"B3 c B2|B2 c2 d2|"Ab" e2 d2 c2|"Eb" B2 G2 "Bb"F2|
"Eb" E3 E E2|E2 G2 B2|"Ab" c3 c c2|"Cm" c2 B2 G2|"Ab" c3 d e2|"Fm7" c2 B2 G2|"Bb" F6|"Eb" E4||

